img/icons/gam-menu.svg

<svg width="19" height="8" viewBox="0 0 19 8" fill="none" xmlns="http://www.w3.org/2000/svg">
<path d="M18.1855 0H0.814545C0.3647 0 0 0.372175 0 0.831169C0 1.29019 0.3647 1.66234 0.814545 1.66234H18.1855C18.6353 1.66234 19 1.29019 19 0.831169C19 0.372175 18.6353 0 18.1855 0ZM18.1855 6.33766H7.85455C7.40473 6.33766 7.04 6.7098 7.04 7.16883C7.04 7.62782 7.40473 8 7.85455 8H18.1855C18.6353 8 19 7.62782 19 7.16883C19 6.7098 18.6353 6.33766 18.1855 6.33766Z" fill="#222126" fill-opacity="0.3"/>
</svg>

<svg width="19" height="8" fill="none" xmlns="http://www.w3.org/2000/svg"><path d="M18.186 0H.815A.823.823 0 0 0 0 .831c0 .46.365.831.815.831h17.37c.45 0 .815-.372.815-.83A.823.823 0 0 0 18.186 0Zm0 6.338H7.855a.823.823 0 0 0-.815.83c0 .46.365.832.815.832h10.33c.45 0 .815-.372.815-.831a.823.823 0 0 0-.814-.831Z" fill="#222126" fill-opacity=".3"/></svg>
